X:1
T:Title
%%score { 1 | 2 }
L:1/8
M:6/4
K:D
V:1 treble nm="Grand Piano"
V:2 bass 
V:1
 z6 z4[Q:1/4=114] A2 | A3 B A2 F2 E2 D2 | [B,D]2 [DG]2 [DB]2 [DA]4 [FA]2 | %3
 [Fd]3 [Ac] [GB]2 [FA]2 F2 D2 | B2 A2 F2 [CE]4 [CA]2 | A3 B A2 F2 E2 D2 | [B,D]2 G2 B2 d4 dd | %7
 [Fd]2 [FA]2 [GB]2 [FA] F3 D2 | E2 D2 E2 F4 [GA][GA] | [Ad]2 [Ae]2 [DAd]2 [DAc] [DGB]3 [B,EG]2 | %10
[M:5/4] [DF]2 [A,CF]3[K:bass] [G,CE] [F,D]4 |] %11
V:2
 z6 z4 [D,F,D]2 | [D,F,D]3 [D,G,D] [D,F,D]2 [D,A,D]2 [D,G,A,]2 [D,F,A,]2 | %2
 [G,,G,]2 [B,,G,]2 [G,,G,]2 [D,F,]4 [D,A,]2 | [D,A,]3 [D,D] [D,D]2 [D,D]2 [D,A,D]2 [F,A,]2 | %4
 [G,D]2 [F,A,D]2 [D,A,D]2 [A,,A,]4 [A,,G,]2 | %5
 [D,F,D]3 [D,G,D] [D,F,D]2 [D,A,D]2 [D,G,A,]2 [D,F,A,]2 | %6
 [G,,G,]2[K:treble] [G,B,D]2 [G,DG]2 [G,B,G]4 [G,B,G][G,B,G] | %7
 [D,A,]2 [D,D]2 [D,D]2 [D,D] [D,A,D]3 [F,A,]2 | [A,C]2 [A,B,]2 [A,C]2 [D,A,D]4 [E,C][E,C] | %9
 [F,D]2 [F,D]2 F,2 G, G,3 G,2 |[M:5/4] A,2 A,,3 A,, D,4 |] %11

